icons/1_Primary/(ISC)2.svg

<svg width="1024" height="1024" fill="none" xmlns="http://www.w3.org/2000/svg"><g clip-path="url(#a)"><path d="M512 1024c282.77 0 512-229.23 512-512S794.77 0 512 0 0 229.23 0 512s229.23 512 512 512Z" fill="#71A372"/><path d="M310.094 340.832C239.328 382.968 194.45 445.821 194.45 516.107c0 65.84 39.456 125.202 102.697 167.061 5.054-3.609 10.594-7.083 16.516-10.422-47.534-40.953-76.605-96.062-76.605-156.639 0-65.742 34.214-124.98 89.04-166.808-5.63-2.695-10.974-5.51-16.005-8.467h.001Zm405.344.129a207.175 207.175 0 0 1-15.971 8.437c54.721 41.86 88.832 101.044 88.832 166.711 0 60.517-28.982 115.545-76.434 156.58a178.78 178.78 0 0 1 16.592 10.332c63.062-41.836 102.457-101.162 102.457-166.912 0-70.196-44.83-133.064-115.476-175.148Zm147.107 52.232c-5.75 0-11.14 2.187-16.928 6.8v12.937c5.788-7.375 11.043-9.666 16.201-9.666 7.038 0 12.286 5.577 12.286 13.46 0 5.983-1.7 9.591-5.008 15.356-6.095 10.37-17.078 23.412-24.977 32.98v.711h45.43v-9.748h-27.416c16.007-19.039 22.287-28.793 22.287-40.427 0-13.297-8.915-22.403-21.875-22.403Zm-410.473.334c-41.612 0-68.894 23.643-68.894 60.598 0 62.253 98.22 67.576 98.22 114.496 0 12.66-11.671 28.645-36.947 28.645-22.363 0-43.334-11.65-59.955-32.957v41.275c18.972 14.33 38.976 20.97 63.615 20.97 36.559 0 63.557-25.957 63.557-61.572 0-72.248-98.205-71.559-98.205-115.214 0-15.962 14.974-26.93 35.975-26.93 15.303 0 33.914 5.314 53.283 23.59v-36.924c-15.985-10.631-33.354-15.977-50.649-15.977Zm204.069 0c-72.256 0-124.506 50.61-124.506 119.856 0 47.594 37.269 113.172 122.484 113.172 35.682 0 59.94-8.296 82.258-19.938v-35.629c-25.605 16.644-53.561 25.649-79.211 25.649-54.632 0-91.937-35.277-91.937-86.27 0-49.885 38.67-86.887 90.584-86.887 26.286 0 50.295 7.354 78.236 23.66v-34.972c-30.936-12.99-54.594-18.64-77.908-18.64v-.001Zm-347.334 2.977v227.055h32.597V396.504h-32.597Z" fill="#fff"/></g><defs><clipPath id="a"><path fill="#fff" d="M0 0h1024v1024H0z"/></clipPath></defs></svg>

<svg width="1024" height="1024" viewBox="0 0 1024 1024" fill="none" xmlns="http://www.w3.org/2000/svg">
<g clip-path="url(#clip0_2_4051)">
<path d="M512 1024C794.77 1024 1024 794.77 1024 512C1024 229.23 794.77 0 512 0C229.23 0 0 229.23 0 512C0 794.77 229.23 1024 512 1024Z" fill="#71A372"/>
<path d="M310.094 340.832C239.328 382.968 194.45 445.821 194.45 516.107C194.45 581.947 233.906 641.309 297.147 683.168C302.201 679.559 307.741 676.085 313.663 672.746C266.129 631.793 237.058 576.684 237.058 516.107C237.058 450.365 271.272 391.127 326.098 349.299C320.468 346.604 315.124 343.789 310.093 340.832H310.094ZM715.438 340.961C710.24 344.004 704.911 346.819 699.467 349.398C754.188 391.258 788.299 450.442 788.299 516.109C788.299 576.626 759.317 631.654 711.865 672.689C717.58 675.828 723.119 679.277 728.457 683.021C791.519 641.185 830.914 581.859 830.914 516.109C830.914 445.913 786.084 383.045 715.438 340.961ZM862.545 393.193C856.795 393.193 851.405 395.38 845.617 399.993V412.93C851.405 405.555 856.66 403.264 861.818 403.264C868.856 403.264 874.104 408.841 874.104 416.724C874.104 422.707 872.404 426.315 869.096 432.08C863.001 442.45 852.018 455.492 844.119 465.06V465.771H889.549V456.023H862.133C878.14 436.984 884.42 427.23 884.42 415.596C884.42 402.299 875.505 393.193 862.545 393.193ZM452.072 393.527C410.46 393.527 383.178 417.17 383.178 454.125C383.178 516.378 481.398 521.701 481.398 568.621C481.398 581.281 469.727 597.266 444.451 597.266C422.088 597.266 401.117 585.616 384.496 564.309V605.584C403.468 619.914 423.472 626.554 448.111 626.554C484.67 626.554 511.668 600.597 511.668 564.982C511.668 492.734 413.463 493.423 413.463 449.768C413.463 433.806 428.437 422.838 449.438 422.838C464.741 422.838 483.352 428.152 502.721 446.428V409.504C486.736 398.873 469.367 393.527 452.072 393.527ZM656.141 393.527C583.885 393.527 531.635 444.137 531.635 513.383C531.635 560.977 568.904 626.555 654.119 626.555C689.801 626.555 714.059 618.259 736.377 606.617V570.988C710.772 587.632 682.816 596.637 657.166 596.637C602.534 596.637 565.229 561.36 565.229 510.367C565.229 460.482 603.899 423.48 655.813 423.48C682.099 423.48 706.108 430.834 734.049 447.14V412.168C703.113 399.178 679.455 393.528 656.141 393.528V393.527ZM308.807 396.504V623.559H341.404V396.504H308.807Z" fill="white"/>
</g>
<defs>
<clipPath id="clip0_2_4051">
<rect width="1024" height="1024" fill="white"/>
</clipPath>
</defs>
</svg>
